assets/images/zigzag-03.svg

<svg xmlns="http://www.w3.org/2000/svg" fill="none" viewBox="0 0 1850 34"><path stroke="#CCC" stroke-miterlimit="10" stroke-width="4" d="m2 3 34.836 28L71.668 3l34.833 28 34.834-28 34.833 28 34.836-28 34.833 28 34.836-28 34.833 28 34.836-28 34.833 28 34.836-28 34.833 28L489.68 3l34.834 28 34.834-28 34.836 28 34.834-28 34.835 28L698.69 3l34.835 28L768.36 3l34.835 28 34.836-28 34.837 28 34.837-28 34.837 28 34.837-28 34.841 28 34.83-28 34.84 28 34.83-28 34.83 28 34.84-28 34.83 28 34.84-28 34.83 28 34.83-28 34.84 28 34.84-28 34.84 28 34.83-28 34.84 28 34.84-28 34.84 28 34.84-28 34.84 28 34.83-28 34.84 28 34.84-28 34.84 28 34.84-28 34.84 28"/></svg>

<svg width="1850" height="34" viewBox="0 0 1850 34" fill="none" xmlns="http://www.w3.org/2000/svg">
<path d="M2 3L36.836 31L71.668 3L106.501 31L141.335 3L176.168 31L211.004 3L245.837 31L280.673 3L315.506 31L350.342 3L385.175 31L420.011 3L454.844 31L489.68 3L524.514 31L559.348 3L594.184 31L629.018 3L663.853 31L698.69 3L733.525 31L768.36 3L803.195 31L838.031 3L872.868 31L907.705 3L942.542 31L977.379 3L1012.22 31L1047.05 3L1081.89 31L1116.72 3L1151.55 31L1186.39 3L1221.22 31L1256.06 3L1290.89 31L1325.72 3L1360.56 31L1395.4 3L1430.24 31L1465.07 3L1499.91 31L1534.75 3L1569.59 31L1604.43 3L1639.27 31L1674.1 3L1708.94 31L1743.78 3L1778.62 31L1813.46 3L1848.3 31" stroke="#CCCCCC" stroke-width="4" stroke-miterlimit="10"/>
</svg>
